packages/sources/icons/src/vitamix/emotion-sad-line.svg

<svg width="16" height="16" viewBox="0 0 16 16" fill="none" xmlns="http://www.w3.org/2000/svg">
<path fill-rule="evenodd" clip-rule="evenodd" d="M8 1.33333C11.682 1.33333 14.6667 4.318 14.6667 8C14.6667 8.48466 14.6153 8.95666 14.5167 9.41199L13.3287 8.22333C13.4292 5.81774 11.9056 3.64308 9.61024 2.91614C7.31492 2.18921 4.81717 3.09028 3.51458 5.11517C2.21198 7.14007 2.4276 9.78661 4.04077 11.574C5.65394 13.3613 8.2646 13.8462 10.412 12.7573C10.6664 13.1606 11.0244 13.4882 11.4487 13.706C10.4088 14.336 9.21584 14.6684 8 14.6667C4.318 14.6667 1.33333 11.682 1.33333 8C1.33333 4.318 4.318 1.33333 8 1.33333ZM12.6667 9.44796L13.6093 10.3906C14.121 10.9021 14.1314 11.7283 13.6328 12.2525C13.1343 12.7767 12.3086 12.8077 11.7722 12.3223C11.2357 11.837 11.1841 11.0123 11.656 10.464L11.724 10.3906L12.6667 9.44796ZM10.4667 11.0913C9.85673 10.4207 8.97739 9.99999 8.00006 9.99999C7.06068 9.99874 6.16461 10.395 5.53339 11.0907L6.16339 11.664C6.69006 11.4553 7.32139 11.3333 8.00006 11.3333C8.67873 11.3333 9.31006 11.4547 9.83673 11.6647L10.4667 11.0913ZM5.66666 6.66666C6.21895 6.66666 6.66666 7.11438 6.66666 7.66666C6.66666 8.21895 6.21895 8.66666 5.66666 8.66666C5.11438 8.66666 4.66666 8.21895 4.66666 7.66666C4.66666 7.11438 5.11438 6.66666 5.66666 6.66666ZM11.3333 7.66666C11.3333 7.11438 10.8856 6.66666 10.3333 6.66666C9.78104 6.66666 9.33333 7.11438 9.33333 7.66666C9.33333 8.21895 9.78104 8.66666 10.3333 8.66666C10.8856 8.66666 11.3333 8.21895 11.3333 7.66666Z" fill="#001018"/>
</svg>

<svg width="16" height="16" fill="none" xmlns="http://www.w3.org/2000/svg"><path fill-rule="evenodd" clip-rule="evenodd" d="M8 1.333a6.667 6.667 0 0 1 6.517 8.079l-1.188-1.189a5.333 5.333 0 1 0-2.917 4.534c.254.404.612.731 1.037.949A6.667 6.667 0 1 1 8 1.333zm4.667 8.115.942.943a1.333 1.333 0 1 1-1.953.073l.068-.073.943-.943zm-2.2 1.643A3.325 3.325 0 0 0 8 10a3.325 3.325 0 0 0-2.467 1.09l.63.574A5.03 5.03 0 0 1 8 11.334c.679 0 1.31.12 1.837.33l.63-.573zm-4.8-4.424a1 1 0 1 1 0 2 1 1 0 0 1 0-2zm5.666 1a1 1 0 1 0-2 0 1 1 0 0 0 2 0z" fill="#001018"/></svg>
